X: 1
%
T:Lads Of North Tyne, The
M:4/4
L:1/8
R:hornpipe
F:http://www.feardearg.com/sessionite/docs/sessionite.abc
K:Dmaj
||FA|BAFA D2 FA| BA (3Bcd e2 de |fagf egfe|dfed B2 dB|
| BAFA D2 FA| BA (3Bcd e2 de |fagf egfe|d2 f2 d2 :|
|: fg| afdf a2g2 | efga b2 ag |fagf egfe |df ed B2 dB|
| BAFA D2 FA| BA (3Bcd e2 de |fagf egfe|d2 f2 d2 :|
W:Variation from Bob himself
K: Dmaj
||A (3EFA|BAFA DEFA| BABd e2 de |faaf egfe|defd B2 dc|
| BAFA DAFA| BABd e2 de |faaf egfe|d2 d2 d2 :|
|: fg| afdf a2 gf | gfga b2 ag |faaf egfe |defd Bcdc|
| BAFA DEFA| BABd e2 de |faaf egfe|d2 d2 d2 :|

